!!!COM:	la Rue, Pierre de
!!!CDT:	~1452///-1518/11/20
!!!OPR:	Missa De Sancto Job
!!!ONM:	3
!!!OTL:	Credo
!!!AGN:	Mass; Credo
!!!SCT:	Rue1013c
!!!SCA:	Rue1013c
!!!voices-OPR:	4
!!!voices:	4
**kern	**kern	**kern	**kern
*Ivox	*Ivox	*Ivox	*Ivox
*I"Bassus	*I"Tenor	*I"Contratenor	*I"Discantus
*staff4	*staff3	*staff3	*staff1
*>[A,B]	*>[A,B]	*>[A,B]	*>[A,B]
*>A	*>A	*>A	*>A
*clefF4	*clefGv2	*clefGv2	*clefG2
*k[b-]	*k[b-]	*k[b-]	*k[b-]
*M3/1	*M3/1	*M3/1	*M3/1
*met(O)	*met(O)	*met(O)	*met(O)
!!section: Patrem omnipotentem
!!!OMD: Patrem omnipotentem
=1-	=1-	=1-	=1-
0.r	0.r	0G	0g
.	.	1G	2.b-\
.	.	.	4a/
=2	=2	=2	=2
0.r	0.r	0B-	2f/
.	.	.	2g/
.	.	.	2f/
.	.	.	1g
.	.	1c	.
.	.	.	4f/
.	.	.	4e/
=3	=3	=3	=3
0.r	0.r	0d	2f/
.	.	.	2b-\
.	.	.	2a/
.	.	.	1dd
.	.	1e-i	.
.	.	.	2cc\
=4	=4	=4	=4
0.r	0.r	0d	2b-\
.	.	.	1a
.	.	.	4g/
.	.	.	4f/
.	.	2r	2g/
.	.	2d\	2a/
=5	=5	=5	=5
0.r	0.r	2d\	1d
.	.	2d\	.
.	.	2e\	2r
.	.	2.f\	2a/
.	.	.	2a/
.	.	4e\	.
.	.	4d\	2a/
.	.	4c\	.
=6	=6	=6	=6
0.r	0.r	2d\	2b-\
.	.	4c\	2.cc\
.	.	4d\	.
.	.	4e\	.
.	.	4d\	4b-\
.	.	1f	4a/
.	.	.	4g/
.	.	.	2a/
.	.	2e\	4g/
.	.	.	4a/
=7	=7	=7	=7
0.r	0.r	2d\	4b-\
.	.	.	4a/
.	.	2e-\	1cc
.	.	4e-i\	.
.	.	4d\	.
.	.	4c\	1b-
.	.	4B-\	.
.	.	1c	.
.	.	.	2a/
=8	=8	=8	=8
0.r	0.r	2B-\	0.b-
.	.	1e-	.
.	.	2e-i\	.
.	.	2e-i\	.
.	.	2e-i\	.
=9	=9	=9	=9
0.r	0.r	2d\	2r
.	.	2.G/	1b-
.	.	4A/	.
.	.	4B-\	2b-\
.	.	4c\	.
.	.	2d\	2b-\
.	.	2e\	2b-\
=10	=10	=10	=10
0.r	0.r	0f	2a/
.	.	.	2.d/
.	.	.	4e/
.	.	.	4f/
.	.	.	4g/
.	.	1f	2a/
.	.	.	2b-\
=11	=11	=11	=11
0.r	0.r	2e\	0cc
.	.	2.f\	.
.	.	4e\	.
.	.	4c\	.
.	.	4d\	.
.	.	2e\	1cc
.	.	2f\	.
=12	=12	=12	=12
0.r	0.r	2d\	2b-\
.	.	2e\	2.cc\
.	.	1c	.
.	.	.	4b-\
.	.	.	4g/
.	.	.	4a/
.	.	2r	2b-\
.	.	4A/	2cc\
.	.	4B-\	.
=13	=13	=13	=13
0.r	0.r	2c\	2a/
.	.	2.d\	2.b-\
.	.	4c\	4a/
.	.	2B-\	1g
.	.	1A	.
.	.	.	2f#i/
=14	=14	=14	=14
0G	1r	1G	0.g
.	0d	1r	.
1G	.	1r	.
=15	=15	=15	=15
1.B-	1d	0.r	0.r
.	1.f	.	.
2B-\	.	.	.
2A\	.	.	.
2F\	2f\	.	.
=16	=16	=16	=16
2.G\	2e\	0.r	0.r
.	2c\	.	.
4F\	.	.	.
1D	2.d\	.	.
.	4c\	.	.
2r	1A	.	.
2D\	.	.	.
=17	=17	=17	=17
2.F\	2r	0.r	0.r
.	2A/	.	.
4D\	.	.	.
2E\	2.c\	.	.
2F\	.	.	.
.	4A/	.	.
4E\	2B-\	.	.
4D\	.	.	.
[2C/	[2c\	.	.
=18	=18	=18	=18
4C/]	2c\]	0.r	0.r
4D\	.	.	.
4E\	2.G/	.	.
4F\	.	.	.
2.G\	.	.	.
.	4A/	.	.
.	4B-\	.	.
4F\	4c\	.	.
4D\	2.d\	.	.
4E\	.	.	.
[2F\	.	.	.
.	4c\	.	.
=19	=19	=19	=19
2F\]	4A/	0.r	0.r
.	4B-\	.	.
4E-i\	1c	.	.
4D\	.	.	.
4E-i\	.	.	.
4D\	.	.	.
4C/	1B-	.	.
4BB-/	.	.	.
1C	.	.	.
.	2A/	.	.
=20	=20	=20	=20
0.BB-	2B-\	0.r	0.r
.	1d	.	.
.	2d\	.	.
.	2d\	.	.
.	2d\	.	.
=21	=21	=21	=21
2r	2c\	0.r	0.r
1G	2.d\	.	.
.	4c\	.	.
2G\	4B-\	.	.
.	4A/	.	.
2G\	2G/	.	.
2G\	2B-\	.	.
=22	=22	=22	=22
2F\	2A/	0.r	0.r
2.G\	4G/	.	.
.	4A/	.	.
.	4B-\	.	.
4F\	4A/	.	.
4E\	2.c\	.	.
4D\	.	.	.
2C/	.	.	.
.	4B-\	.	.
2E\	4A/	.	.
.	4G/	.	.
=23	=23	=23	=23
2D\	2F/	0.r	0.r
2.C/	4G/	.	.
.	2A/	.	.
4GG/	4G/	.	.
2BB-/	1G	.	.
1AA	.	.	.
.	2F#i/	.	.
=24	=24	=24	=24
0.GG	[0.G	1r	1r
.	.	1r	1r
.	.	1g	1b-
=25	=25	=25	=25
1r	0.G]	1g	1b-
1r	.	2g\	2b-\
.	.	1e-i	1g
1G	.	.	.
.	.	4d\	4f/
.	.	4c\	4e/
=26	=26	=26	=26
1G	0.r	0B-	2d/
.	.	.	2.b-\
2G\	.	.	.
.	.	.	4a/
1E-	.	.	1g
.	.	1c	.
4D\	.	.	4f/
4C/	.	.	4e/
=27	=27	=27	=27
1BB-	0B-	2d\	1d
.	.	2G/	.
0E-	.	2G/	2r
.	.	2.G/	2g/
.	1G	.	2g/
.	.	4A/	.
.	.	4B-\	2g/
.	.	4G/	.
=28	=28	=28	=28
2D\	0F	2d\	1a
2D\	.	4c\	.
.	.	4B-\	.
2D\	.	2A/	2a/
2.D\	.	2B-\	2.f/
.	1A	1F	.
4E-\	.	.	4g/
2F\	.	.	2a/
=29	=29	=29	=29
1BB-	1B-	1r	2d/
.	.	.	1f
1F	0c	1.A	.
.	.	.	4e/
.	.	.	4d/
1F	.	.	1c
.	.	2A/	.
=30	=30	=30	=30
0.BB-	[0.d	1F	0B-
.	.	2r	.
.	.	2B-\	.
.	.	2B-\	2r
.	.	2B-\	2b-\
=31	=31	=31	=31
1r	0.d]	2.B-\	2b-\
.	.	.	2b-\
.	.	4A/	.
2r	.	1G	2.b-\
2G\	.	.	.
.	.	.	4a/
2.G\	.	2r	1g
.	.	2G/	.
4F\	.	.	.
=32	=32	=32	=32
4E-\	0.r	2.c\	2r
4D\	.	.	.
1C	.	.	2g/
.	.	4B-\	.
.	.	2A/	2.cc\
2C/	.	2.c\	.
.	.	.	4b-\
2.F\	.	.	2a/
.	.	4B-\	.
.	.	4A/	4cc\
4G\	.	4G/	4b-\
=33	=33	=33	=33
2A\	0.r	4F/	4a/
.	.	4E/	4g/
2D\	.	2A/	4f/
.	.	.	4e/
2BB-/	.	4B-\	2g/
.	.	4A/	.
2D\	.	4G/	1f
.	.	4F/	.
1C	.	1G	.
.	.	.	2e/
=34	=34	=34	=34
1.D	0d	2F/	0f
.	.	2B-\	.
.	.	2A/	.
2BB-/	.	1B-	.
[1BB-	1d	.	1r
.	.	4A/	.
.	.	4G/	.
=35	=35	=35	=35
1BB-]	1B-	1F	1d
1r	0d	0B-	2d/
.	.	.	1f
2r	.	.	.
2BB-/	.	.	4e-i/
.	.	.	4d/
=36	=36	=36	=36
2C/	1c	1r	1e-i
2AA/	.	.	.
1BB-	1.B-	1.F	2d/
.	.	.	2d/
2BB-/	.	.	2d/
[2D\	2B-\	2F/	[2f/
=37	=37	=37	=37
4D\]	1B-	1F	2f/]
4C/	.	.	.
1BB-	.	.	2d/
.	1c	2G/	2e-i/
2AA/	.	2A/	4d/
.	.	.	4c/
[1BB-	1d	2F/	2B-/
.	.	[2B-\	[2f/
=38	=38	=38	=38
1BB-]	2d\	2B-\]	2f/]
.	1d	4A/	2f/
.	.	4G/	.
1D	.	1F	1f
.	2d\	.	.
2C/	1e-i	1c	1g
2C/	.	.	.
=39	=39	=39	=39
2D\	2.d\	2A/	2.f/
2.BB-/	.	2B-\	.
.	4B-\	.	4d/
.	1c	2G/	1e-i
4AA/	.	.	.
2AA/	.	2A/	.
2BB-/	1B-	2F/	1d
[2B-\	.	[2G/	.
=40	=40	=40	=40
2B-\]	0d	4G/]	2r
.	.	4A/	.
2B-\	.	4B-\	2.f/
.	.	4c\	.
2B-\	.	2.d\	.
.	.	.	4g/
4A\	.	.	4a/
4G\	.	4B-\	4b-\
1F	1d	[1f	2a/
.	.	.	2f/
=41	=41	=41	=41
1F	2c\	1f]	4a/
.	.	.	4b-\
.	4A/	.	4cc\
.	4B-\	.	4dd\
2A\	2c\	1f	2cc\
2B-\	2d\	.	1b-
1F	1c	1f	.
.	.	.	2a/
=42	=42	=42	=42
1BB-	1B-	2r	1b-
.	.	2f\	.
2r	0c	2e\	2r
1F	.	1f	1a
2F\	.	4e\	2a/
.	.	4d\	.
=43	=43	=43	=43
2C/	1c	1e	2g/
2C/	.	.	2a/
1BB-	2d\	1.f	2b-\
.	4c\	.	4a/
.	4B-\	.	4g/
2D\	4A/	.	2f/
.	4G/	.	.
2C/	2A/	2e\	2cc\
=44	=44	=44	=44
1BB-	1B-	1d	2dd\
.	.	.	4cc\
.	.	.	4b-\
1F	2r	1c	4a/
.	.	.	4g/
.	2c\	.	2a/
2.BB-/	2d\	2r	2b-\
.	4c\	2f\	4a/
4C/	4B-\	.	4g/
=45	=45	=45	=45
4D\	4A/	2f\	4f/
4E\	4G/	.	4e/
1F	2.c\	2.f\	1a
.	4B-\	4d\	.
2G\	2G/	2e-i\	1g
1D	1A	1d	.
.	.	.	2f#i/
=46	=46	=46	=46
0.GG	0G	2d\	0.g
.	.	1B-	.
.	.	4A/	.
.	.	4G/	.
.	1r	2B-\	.
.	.	4A/	.
.	.	4G/	.
=47	=47	=47	=47
1r	1A	0F	0.r
1r	2A/	.	.
.	1A	.	.
1D	.	1r	.
.	[2B-\	.	.
=48	=48	=48	=48
2D\	4B-\]	0.r	0.r
.	4A/	.	.
1D	4A/	.	.
.	4G/	.	.
.	2F/	.	.
2.E-i\	2.c\	.	.
4D\	4B-\	.	.
4D\	4B-\	.	.
4C/	4A/	.	.
=49	=49	=49	=49
2BB-/	4G/	0.r	0.r
.	4F/	.	.
2D\	1B-	.	.
1C	.	.	.
.	2A/	.	.
1BB-	1B-	.	.
=50	=50	=50	=50
0D	2r	0.r	0.r
.	1A	.	.
.	2A/	.	.
2D\	1A	.	.
2D\	.	.	.
=51	=51	=51	=51
2.D\	2B-\	0.r	0.r
.	1A	.	.
4E\	.	.	.
2F\	.	.	.
2G\	1d	.	.
1E	.	.	.
.	2c\	.	.
=52	=52	=52	=52
1D	2d\	0.r	0.r
.	1A	.	.
2F\	.	.	.
2E\	2c\	.	.
2.D\	2B-\	.	.
.	[2A/	.	.
4E\	.	.	.
=53	=53	=53	=53
4F\	4A/]	0.r	0.r
4D\	4B-\	.	.
2E\	4c\	.	.
.	4A/	.	.
2.D\	2B-\	.	.
.	2.A/	.	.
4C/	.	.	.
4AA/	.	.	.
4BB-/	4G/	.	.
4C/	4E/	.	.
4D\	4D/	.	.
=54	=54	=54	=54
2BB-/	4F/	1r	0.r
.	4G/	.	.
2C/	2.A/	.	.
2.GG/	.	1r	.
.	4G/	.	.
.	1G	.	.
4BB-/	.	.	.
1AA	.	2r	.
.	2F#i/	2A/	.
=55	=55	=55	=55
1GG	[0.G	4B-\	1r
.	.	4c\	.
.	.	4d\	.
.	.	4e-i\	.
1r	.	2d\	1r
.	.	1c	.
1GG	.	.	1g
.	.	2B-\	.
=56	=56	=56	=56
2C/	0.G]	2c\	2e/
2C/	.	1c	2e/
2C/	.	.	2e/
2C/	.	4B-\	2e/
.	.	4A/	.
1GG	.	2B-\	2d/
.	.	2G/	[2g/
=57	=57	=57	=57
0.r	0.r	2B-\	2g/]
.	.	2c\	4f/
.	.	.	4e/
.	.	1d	2f/
.	.	.	2d/
.	.	2r	2f/
.	.	2e\	2g/
=58	=58	=58	=58
0.r	0.r	2f\	1a
.	.	1d	.
.	.	.	2r
.	.	4c\	2b-\
.	.	4B-\	.
.	.	2A/	2cc\
.	.	2F/	[2a/
=59	=59	=59	=59
0.r	0A	2.A/	2a/]
.	.	.	4g/
.	.	4B-\	4f/
.	.	2c\	4e/
.	.	.	4d/
.	.	1d	2f/
.	1A	.	1e
.	.	2c#i\	.
=60	=60	=60	=60
0D	2A/	1d	1d
.	1B-	.	.
.	.	1r	1r
.	1A	.	.
2D\	.	1r	1r
[2E-i\	4G/	.	.
.	4F/	.	.
=61	=61	=61	=61
2E-\]	2G/	0.r	0.r
1D	2A/	.	.
.	2.B-\	.	.
4C/	.	.	.
4BB-/	4A/	.	.
2C/	2A/	.	.
2D\	2F/	.	.
=62	=62	=62	=62
2E\	2G/	0.r	0.r
2.F\	2A/	.	.
.	4B-\	.	.
4E\	4A/	.	.
1D	4G/	.	.
.	4F/	.	.
.	1E	.	.
2C#i/	.	.	.
=63	=63	=63	=63
2D\	0D	0d	0f
2D\	.	.	.
1BB-	.	.	.
1D	1r	1d	1f
=64	=64	=64	=64
2.C/	1r	2.e-\	1g
4BB-/	.	4d\	.
0GG	0d	2B-\	0b-
.	.	2.B-\	.
.	.	4c\	.
.	.	4d\	.
.	.	4eni\	.
=65	=65	=65	=65
2.D\	1d	1f	2a/
.	.	.	2.f/
4E\	.	.	.
4F\	1c	2r	.
4E\	.	.	4g/
2.F\	.	1f	4a/
.	.	.	4b-\
.	2A/	.	2.cc\
4E\	.	.	.
[2C/	[2c\	4e\	.
.	.	4d\	4b-\
=66	=66	=66	=66
2C/]	2c\]	2e\	2g/
2F\	4B-\	2f\	1a
.	4A/	.	.
1G	2B-\	2e\	.
.	2G/	4d\	1g
.	.	4c\	.
1D	1A	1d	.
.	.	.	2f#i/
=67	=67	=67	=67
2r	2G/	2B-\	0g
2C/	1c	2e-\	.
2C/	.	2e-i\	.
1C	2c\	1e-i	.
.	2c\	.	2r
2AA/	[2c\	4d\	2cc\
.	.	4c\	.
=68	=68	=68	=68
0AA	2c\]	0c	2cc\
.	4B-\	.	1cc
.	4A/	.	.
.	1A	.	.
.	.	.	4b-\
.	.	.	4a/
1r	1d	1f	1a
=69	=69	=69	=69
2.AA/	2c\	2e\	1r
.	1A	1c	.
4BB-/	.	.	.
2C/	.	.	1r
2D\	4G/	4B-\	.
.	4F/	4A/	.
1BB-	1G	1B-	1dd
=70	=70	=70	=70
1AA	1A	1c	2cc\
.	.	.	1a
1r	1d	1r	.
.	.	.	4g/
.	.	.	4f/
1r	2c\	1r	2g/
.	[2A/	.	2a/
=71	=71	=71	=71
0.r	2A/]	1r	1cc
.	4G/	.	.
.	4F/	.	.
.	2G/	1r	2b-\
.	2A/	.	2.a/
.	1B-	1d	.
.	.	.	4g/
.	.	.	2g/
=72	=72	=72	=72
1AA	[0.A	2.c\	2a/
.	.	.	1cc
.	.	4d\	.
2AA/	.	2e\	.
2AA/	.	2f\	2cc\
2.AA/	.	2.e\	2.cc\
4BB-/	.	4d\	4b-\
=73	=73	=73	=73
2C/	0.A]	1c	2a/
2C/	.	.	2g/
1D	.	1r	2f/
.	.	.	4e/
.	.	.	4d/
1AA	.	2r	1c
.	.	[2c\	.
=74	=74	=74	=74
1.AA	2r	2c\]	2r
.	1E	2c\	1cc
.	.	1A	.
2AA/	2E/	.	2cc\
1AA	1E	2A/	2.cc\
.	.	[2c\	.
.	.	.	4b-\
=75	=75	=75	=75
1C	1E	4c\]	2a/
.	.	4d\	.
.	.	2e\	2g/
2.D\	0F	2.d\	2.f/
4E\	.	4c\	4e/
2F\	.	2A/	2c/
[2BB-/	.	[2B-\	[2d/
=76	=76	=76	=76
4BB-/]	1D	4B-\]	4d/]
4C/	.	4A/	4c/
2D\	.	2F/	2A/
1GG	2D/	4G/	2B-/
.	.	4A/	.
.	1G	4B-\	2G/
.	.	4c\	.
1GG	.	[1d	[1B-
.	2G/	.	.
=77	=77	=77	=77
0.Dl	0.Fl	2d\]	2B-/]
.	.	2d\	2A/
.	.	0dl	0Al
!!LO:LB:i:g=z
=78||	=78||	=78||	=78||
*>B	*>B	*>B	*>B
*clefF4	*clefGv2	*clefGv2	*clefG2
*k[b-]	*k[b-]	*k[b-]	*k[b-]
*M2/1	*M2/1	*M2/1	*M2/1
*met(C|)	*met(C|)	*met(C|)	*met(C|)
!!section: Et resurrexit
!!!OMD: Et resurrexit
0r	0r	1.d	0r
.	.	4c\	.
.	.	4B-\	.
=79	=79	=79	=79
0r	0r	2c\	1.a
.	.	2.d\	.
.	.	4e\	.
.	.	2f\	4g/
.	.	.	4f/
=80	=80	=80	=80
0r	0r	2e\	2g/
.	.	1d	2.a/
.	.	.	4b-\
.	.	2c\	2cc\
=81	=81	=81	=81
0r	0r	4d\	2b-\
.	.	4c\	.
.	.	4B-\	1a
.	.	4A/	.
.	.	1B-	.
.	.	.	2g/
=82	=82	=82	=82
0r	0r	2r	1a
.	.	2A/	.
.	.	2c\	2r
.	.	[2c\	2e/
=83	=83	=83	=83
0r	0r	2c\]	2g/
.	.	4B-\	1g
.	.	4A/	.
.	.	2B-\	.
.	.	2c\	4f/
.	.	.	4e/
=84	=84	=84	=84
0r	0r	1d	2f/
.	.	.	2g/
.	.	2r	1a
.	.	2d\	.
=85	=85	=85	=85
0r	0r	1f	2r
.	.	.	2a/
.	.	2e\	1cc
.	.	2c\	.
=86	=86	=86	=86
0r	0r	2d\	2b-\
.	.	2e\	2g/
.	.	2f\	2a/
.	.	4e\	2b-\
.	.	4d\	.
=87	=87	=87	=87
0r	0r	2c\	2cc\
.	.	2f\	4b-\
.	.	.	4a/
.	.	2e\	2g/
.	.	2d\	[2a/
=88	=88	=88	=88
0r	0r	2f\	2a/]
.	.	4e\	2f/
.	.	4d\	.
.	.	2c\	2e/
.	.	[2d\	2d/
=89	=89	=89	=89
0r	0r	2d\]	2f/
.	.	2f\	4e/
.	.	.	4d/
.	.	2e\	2c/
.	.	2d\	[2d/
=90	=90	=90	=90
1r	1A	1e	2d/]
.	.	.	2c#i/
1BB-	[1B-	[1d	1d
=91	=91	=91	=91
1BB-	2B-\]	1d]	0r
.	2B-\	.	.
1BB-	2B-\	1r	.
.	4A/	.	.
.	4G/	.	.
=92	=92	=92	=92
0D	2F/	0r	0r
.	1B-	.	.
.	2A/	.	.
=93	=93	=93	=93
2r	2G/	0r	0r
1E-	1c	.	.
2D\	2B-\	.	.
=94	=94	=94	=94
2C/	2c\	0r	0r
2.F\	4B-\	.	.
.	4A/	.	.
.	1G	.	.
4E\	.	.	.
2E\	.	.	.
=95	=95	=95	=95
2F\	2r	0r	0r
4E\	2F/	.	.
4D\	.	.	.
1C	2G/	.	.
.	2A/	.	.
=96	=96	=96	=96
2r	2.B-\	0r	0r
2BB-/	.	.	.
.	4A/	.	.
1C	4G/	.	.
.	4F/	.	.
.	[2A/	.	.
=97	=97	=97	=97
2D\	4A/]	0r	0r
.	4G/	.	.
2E-i\	2.c\	.	.
4E-\	.	.	.
4D\	4B-\	.	.
4C/	4A/	.	.
4BB-/	4G/	.	.
=98	=98	=98	=98
2C/	2A/	0r	0r
2GG/	1G	.	.
1AA	.	.	.
.	2F#i/	.	.
=99	=99	=99	=99
1GG	[0G	0r	1r
1GG	.	.	1d
=100	=100	=100	=100
1C	0G_	0r	1.e
1C	.	.	.
.	.	.	2e/
=101	=101	=101	=101
1GG	0G_	1r	1d
1BB-	.	1d	2r
.	.	.	2d/
=102	=102	=102	=102
1C	0G]	1e	1g
1C	.	1e	1g
=103	=103	=103	=103
1D	0r	1.d	1f
2r	.	.	1f
2D\	.	2d\	.
=104	=104	=104	=104
1.G	0r	1d	1b-
.	.	1e	1b-
2G\	.	.	.
=105	=105	=105	=105
2.F\	0r	1f	2.a/
4E\	.	.	4b-\
2C/	.	2e\	2cc\
2BB-/	.	[2f\	[2dd\
=106	=106	=106	=106
0F	0r	2f\]	2dd\]
.	.	4e\	2cc\
.	.	4d\	.
.	.	1c	2a/
.	.	.	[2cc\
=107	=107	=107	=107
0r	0r	1c	2cc\]
.	.	.	4b-\
.	.	.	4a/
.	.	2.B-\	2g/
.	.	.	[2f/
.	.	4c\	.
=108	=108	=108	=108
0r	0r	4d\	4f/]
.	.	4e\	4g/
.	.	4f\	4a/
.	.	4g\	4b-\
.	.	1f	4cc\
.	.	.	4dd\
.	.	.	[2cc\
=109	=109	=109	=109
0r	0r	4e-i\	2cc\]
.	.	4d\	.
.	.	4c\	1b-
.	.	4B-\	.
.	.	1c	.
.	.	.	2a/
=110	=110	=110	=110
0BB-	0d	1B-	1b-
.	.	1f	1b-
=111	=111	=111	=111
1BB-	1d	1f	1b-
1BB-	1d	1f	1b-
=112	=112	=112	=112
0D	0d	0f	1a
.	.	.	1b-
=113	=113	=113	=113
2.C/	1.e-	1g	2.cc\
4D\	.	.	4b-\
2E-i\	.	2g\	2g/
[2F\	[2c\	[2f\	[2a/
=114	=114	=114	=114
4F\]	1c]	2f\]	4a/]
4E-i\	.	.	4b-\
2C/	.	2e\	4cc\
.	.	.	4a/
2G\	2.d\	1d	2b-\
2F\	.	.	[2a/
.	4c\	.	.
=115	=115	=115	=115
1G	2B-\	0d	2a/]
.	4A/	.	1g
.	4G/	.	.
1D	1A	.	.
.	.	.	2f#i/
=116	=116	=116	=116
1GG	0G	1r	0g
2r	.	[1d	.
[2G\	.	.	.
=117	=117	=117	=117
2G\]	1r	1d]	0r
2F\	.	.	.
2G\	2r	1d	.
2G\	[2B-\	.	.
=118	=118	=118	=118
1D	2B-\]	1d	0r
.	2A/	.	.
2r	2B-\	1d	.
[2B-\	2B-\	.	.
=119	=119	=119	=119
2B-\]	1F	0f	0r
2A\	.	.	.
2B-\	2r	.	.
2B-\	[2d\	.	.
=120	=120	=120	=120
1F	2d\]	1f	0r
.	2c\	.	.
1r	2d\	1f	.
.	2d\	.	.
=121	=121	=121	=121
2r	1A	2f\	0r
1F	.	2f\	.
.	2A/	2.f\	.
2D\	[2A/	.	.
.	.	4e\	.
=122	=122	=122	=122
2F\	2A/]	2c\	0r
2F\	4G/	1f	.
.	4F/	.	.
1C	1G	.	.
.	.	2e\	.
=123	=123	=123	=123
2r	1F	2f\	0r
1F	.	4e\	.
.	.	4d\	.
.	1r	4c\	.
.	.	4B-\	.
2E\	.	4A/	.
.	.	4G/	.
=124	=124	=124	=124
2F\	0r	2A/	0r
4E\	.	1B-	.
4D\	.	.	.
1C	.	.	.
.	.	2A/	.
=125	=125	=125	=125
0BB-	0F	0B-	1d
.	.	.	2d/
.	.	.	2d/
=126	=126	=126	=126
0r	2G/	0r	2e/
.	2A/	.	1f
.	1B-	.	.
.	.	.	4e/
.	.	.	4d/
=127	=127	=127	=127
0r	4A/	0r	2e/
.	4G/	.	.
.	2A/	.	2f/
.	2B-\	.	1g
.	[2c\	.	.
=128	=128	=128	=128
0r	2c\]	0r	4f/
.	.	.	4e/
.	4B-\	.	2f/
.	4A/	.	.
.	2B-\	.	2g/
.	2c\	.	2a/
=129	=129	=129	=129
0r	1d	0r	2f/
.	.	.	4e/
.	.	.	4d/
.	1c	.	1e
=130	=130	=130	=130
1r	0d	1B-	1d
1D	.	2A/	1r
.	.	[2B-\	.
=131	=131	=131	=131
1E	0r	2B-\]	0r
.	.	1G	.
1C	.	.	.
.	.	[2c\	.
=132	=132	=132	=132
1F	0r	2c\]	0r
.	.	1A	.
1D	.	.	.
.	.	[2d\	.
=133	=133	=133	=133
1E	0r	2d\]	0r
.	.	2c\	.
2.D\	.	2d\	.
.	.	[2B-\	.
4E\	.	.	.
=134	=134	=134	=134
2F\	0r	2B-\]	0r
1G	.	4A/	.
.	.	4G/	.
.	.	1A	.
2F#i\	.	.	.
=135	=135	=135	=135
0G	1.B-	1G	1r
.	.	1r	1d
.	2B-\	.	.
=136	=136	=136	=136
0r	1B-	0r	2.d/
.	.	.	4e/
.	1B-	.	2f/
.	.	.	[2g/
=137	=137	=137	=137
0r	0c	0r	2g/]
.	.	.	1e
.	.	.	[2a/
=138	=138	=138	=138
0r	0d	0r	2a/]
.	.	.	1f
.	.	.	2b-\
=139	=139	=139	=139
0r	2r	0r	2b-\
.	2d\	.	2b-\
.	2d\	.	1b-
.	2d\	.	.
=140	=140	=140	=140
0r	4d\	1r	2a/
.	4c\	.	.
.	4B-\	.	1a
.	4A/	.	.
.	1B-	1d	.
.	.	.	2g/
=141	=141	=141	=141
0D	[0A	2f\	[0a
.	.	2f\	.
.	.	[1f	.
=142	=142	=142	=142
2F\	0A]	2f\]	0a]
2F\	.	4e\	.
.	.	4d\	.
[1F	.	1c	.
=143	=143	=143	=143
2F\]	0r	4c\	0r
.	.	4d\	.
4E\	.	4e\	.
4D\	.	4f\	.
2C/	.	2e\	.
[2D\	.	2d\	.
=144	=144	=144	=144
2D\]	0r	2f\	0r
2F\	.	4e\	.
.	.	4d\	.
2E\	.	2c\	.
2D\	.	2f\	.
=145	=145	=145	=145
4G\	0r	2e\	1r
4F\	.	.	.
4E\	.	1d	.
4D\	.	.	.
1E	.	.	1g
.	.	2c#i\	.
=146	=146	=146	=146
0D	0A	[0d	1f
.	.	.	[1f
=147	=147	=147	=147
2r	1B-	0d]	1f]
2D\	.	.	.
2D\	[1A	.	1f
2D\	.	.	.
=148	=148	=148	=148
0F	2A/]	0r	1.f
.	2A/	.	.
.	1A	.	.
.	.	.	2f/
=149	=149	=149	=149
2C/	1c	1G	1e
2C/	.	.	.
2C/	2c\	2G/	1e
2C/	2c\	2G/	.
=150	=150	=150	=150
0G	0B-	2.G/	1d
.	.	4A/	.
.	.	2B-\	2r
.	.	2G/	2d/
=151	=151	=151	=151
2r	1B-	1.d	1g
2G\	.	.	.
2G\	2B-\	.	1g
2G\	2B-\	2d\	.
=152	=152	=152	=152
1E	1G	1c	1g
1E	1G	1c	1g
=153	=153	=153	=153
[0D	1A	[0d	1.f
.	1B-	.	.
.	.	.	4e/
.	.	.	4d/
=154	=154	=154	=154
1D]	2A/	0d]	2f/
.	1B-	.	2d/
1BB-	.	.	2f/
.	4A/	.	2g/
.	4G/	.	.
=155	=155	=155	=155
2AA/	2F/	1r	2a/
2GG/	1G	.	2b-\
1AA	.	2r	2cc\
.	2F/	2c\	2a/
=156	=156	=156	=156
0GG	2G/	4d\	1b-
.	.	4c\	.
.	2E-/	4B-\	.
.	.	4A/	.
.	1D	2B-\	1g
.	.	2B-\	.
=157	=157	=157	=157
0C	1r	[0c	1r
.	1G	.	1e
=158	=158	=158	=158
1C	1G	0c]	1e
1C	1G	.	1e
=159	=159	=159	=159
0BB-	0d	1F	0f
.	.	2F/	.
.	.	[2B-\	.
=160	=160	=160	=160
1.F	1.c	2B-\]	1.f
.	.	4A/	.
.	.	4G/	.
.	.	2A/	.
2BB-/	2B-\	2B-\	2d/
=161	=161	=161	=161
2.BB-/	0B-	1B-	2.d/
4C/	.	.	4e/
2D\	.	2r	2f/
[2E-\	.	2G/	[2g/
=162	=162	=162	=162
4E-\]	1B-	1G	4g/]
4F\	.	.	4f/
2G\	.	.	2d/
2.C/	[1c	2G/	2.e/
.	.	[2c\	.
4D\	.	.	4f/
=163	=163	=163	=163
2E\	1c]	4c\]	2g/
.	.	4B-\	.
2.F\	.	4A/	2.a/
.	.	4G/	.
.	1c	1F	.
4G\	.	.	4b-\
2A\	.	.	2cc\
=164	=164	=164	=164
1B-	[0d	1r	1f
1BB-	.	1f	2r
.	.	.	2b-\
=165	=165	=165	=165
2r	0d]	1f	1b-
2B-\	.	.	.
2B-\	.	2f\	2.b-\
2B-\	.	[2g\	.
.	.	.	4cc\
=166	=166	=166	=166
1G	1d	2g\]	2dd\
.	.	2g\	1dd
1B-	2d\	[1f	.
.	2d\	.	4cc\
.	.	.	4b-\
=167	=167	=167	=167
[0F	2c\	2f\]	2.a/
.	2c\	4e\	.
.	.	4d\	4f/
.	2.A/	1c	4a/
.	.	.	4b-\
.	.	.	[2cc\
.	4B-\	.	.
=168	=168	=168	=168
0F]	2c\	2f\	2cc\]
.	2d\	2.f\	1b-
.	1c	.	.
.	.	4e\	.
.	.	4d\	2a/
.	.	4c\	.
=169	=169	=169	=169
1r	0B-	1d	1b-
1BB-	.	2r	2r
.	.	2f\	2b-\
=170	=170	=170	=170
1F	1r	1f	1a
1F	1c	1f	1a
=171	=171	=171	=171
0C	1c	0e	0g
.	1c	.	.
=172	=172	=172	=172
1.G	0B-	1d	1g
.	.	2d\	2g/
2G\	.	[2B-\	[2b-\
=173	=173	=173	=173
2G\	1G	4B-\]	2b-\]
.	.	4c\	.
2G\	.	1d	4a/
.	.	.	4g/
1E	1G	.	2b-\
.	.	2c\	4a/
.	.	.	4g/
=174	=174	=174	=174
2D\	1B-	2d\	2f/
2E\	.	1c	1g
2F\	2A/	.	.
2D\	2F/	2B-\	[2f/
=175	=175	=175	=175
1C	1G	1c	2f/]
.	.	.	2e/
1D	2F/	2A/	1f
.	[2B-\	[2d\	.
=176	=176	=176	=176
0BB-	2B-\]	2d\]	1r
.	4A/	4c\	.
.	4G/	4B-\	.
.	2B-\	2d\	1d
.	4A/	4c\	.
.	4G/	4B-\	.
=177	=177	=177	=177
1r	1F	1A	0f
1BB-	1B-	1d	.
=178	=178	=178	=178
[0D	2A/	1d	1f
.	2F/	.	.
.	1B-	1d	1f
=179	=179	=179	=179
*rscale:2/3	*rscale:2/3	*	*
*	*	*M3/1	*M3/1
*	*	*met(3)	*met(3)
0.D]	0.A	1d	1.f
.	.	2d\	.
.	.	2e\	2g/
.	.	1f	1a
*rscale:1	*rscale:1	*	*
=180	=180	=180	=180
*M3/1	*M3/1	*	*
*met(3)	*met(3)	*	*
!!primary-mensuration: met(3)
0GG	0G	1.g	1.b-
.	.	2e\	2g/
1r	1r	1f	1a
=181	=181	=181	=181
0.r	1r	1.e	1.g
.	1r	.	.
.	.	2c\	2a/
.	1G	1d	1b-
=182	=182	=182	=182
0.r	1.A	0c	1.cc
.	2F/	.	2a/
.	1G	1e	1b-
=183	=183	=183	=183
1r	1.F	1.f	1.a
1r	.	.	.
.	2G/	2e\	2b-\
1AA	1A	1e	1cc
=184	=184	=184	=184
1.BB-	1D	1d	1.dd
.	1r	0e	.
2GG/	.	.	2b-\
1AA	1r	.	1cc
=185	=185	=185	=185
0BB-	1.d	1d	1.f
.	.	1r	.
.	2c\	.	2g/
1F	1c	1r	1a
=186	=186	=186	=186
1.G	1B-	0.r	1.b-
.	0c	.	.
2E\	.	.	2g/
1F	.	.	1a
=187	=187	=187	=187
1.BB-	1.B-	0f	1.d
2C/	2A/	.	2e/
1D	1A	1d	1f
=188	=188	=188	=188
1E	1G	1c	0g
0D	0A	0d	.
.	.	.	1f
=189	=189	=189	=189
1.E-	1.G	1.B-	1g
.	.	.	1.b-
2D\	2A/	2c\	.
1BB-	1B-	1d	.
.	.	.	2a/
=190	=190	=190	=190
1.F	1.A	1.c	1f
.	.	.	1.cc
2E\	2B-\	2d\	.
1C	1c	1e	.
.	.	.	2b-\
=191	=191	=191	=191
1.D	1.F	0f	2a/
.	.	.	2g/
.	.	.	1.a
2E\	2G/	.	.
1F	1A	1f	.
.	.	.	2g/
=192	=192	=192	=192
1G	1B-	1e-i	1.g
0D	0A	2d\	.
.	.	2c\	2f#i/
.	.	1d	1f#i
=193	=193	=193	=193
[0.GGl	[0.Gl	1.B-	[0.gl
.	.	2G/	.
.	.	2B-\	.
.	.	2c\	.
=194	=194	=194	=194
0.GG]	0.G]	0.dl	0.g]
==	==	==	==
*-	*-	*-	*-
!!!RDF**kern: l=long note in original notation
!!!RDF**kern: i=editorial accidental
!!!ENC:	Megan K. Eagen 2013/01/20
!!!END:	2013/01/20/
!!!EED:	Jesse Rodin
!!!EEV:	2013/08/04/
!!!ONB:	Translated from MusicXML and edited on 2013/08/04/ by Craig Sapp
!!muse2ps: T^@{OPR}^u^@{ONM}{. }@{OTL}^C^@{COM}^i2I150v85,85,85,150Q16
